!!!COM: Schiørring, Niels
!!!CDT: 1743-1798
!!!OPR@@DA: Choral-Bog
!!!ONM: 6
!!!OTL@@DA: Af Kierlighed min Ven
**kern	**fb	**kern	**kern	**kern	**kern	**kern	**kern	**kern
*part6	*part6	*part6	*part5	*part5	*part4	*part3	*part2	*part1
*staff8	*	*staff7	*staff6	*staff5	*staff4	*staff3	*staff2	*staff1
*clefF4	*	*clefC1	*clefF4	*clefC1	*clefF4	*clefC4	*clefC3	*clefC1
*k[b-e-a-]	*	*k[b-e-a-]	*k[b-e-a-]	*k[b-e-a-]	*k[b-e-a-]	*k[b-e-a-]	*k[b-e-a-]	*k[b-e-a-]
*E-:	*	*E-:	*E-:	*E-:	*E-:	*E-:	*E-:	*E-:
*M4/4	*	*M4/4	*M4/4	*M4/4	*M4/4	*M4/4	*M4/4	*M4/4
*met(c)	*	*met(c)	*met(c)	*met(c)	*met(c)	*met(c)	*met(c)	*met(c)
*MM180	*	*MM180	*MM180	*MM180	*MM180	*MM180	*MM180	*MM180
*	*	*	*^	*^	*	*	*	*
2C	.	2cc	2G	2C	2cc	2e-	2C	2e-	2g	2cc
=1	=1	=1	=1	=1	=1	=1	=1	=1	=1	=1
2D	6	2b-	1B-	2D	2b-	2f	2D	2d	2f	2b-
2BB-	7	2a-	.	2BB-	2a-	2d	2BB-	2d	2f	2a-
=2	=2	=2	=2	=2	=2	=2	=2	=2	=2	=2
2E-	.	2g	1B-	2E-	2g	2e-	2E-	2B-	2e-	2g
2E-	nr4	2an	.	2E-	2an	2f	2E-	2c	2f	2an
=3	=3	=3	=3	=3	=3	=3	=3	=3	=3	=3
2D	nr6	2bn	1ryy	2D	2d	2f	2D	2d	2f	2bn
2C	.	2cc	.	2C	2e-	2g	2C	2e-	2g	2cc
=4	=4	=4	=4	=4	=4	=4	=4	=4	=4	=4
2G	n	2dd	2Bn	2G	2dd	1g	2G	2B	2g	2dd
2C	.	2ee-	[2c	2C	2ee-	.	2C	[2c	2g	2ee-
=5	=5	=5	=5	=5	=5	=5	=5	=5	=5	=5
2F	6 5	1dd	2c]	2F	1dd	2a-	(2F	(2c]	(2a-	1dd
2G	n	.	2Bn	2G	.	2g	2G)	4B	2g)	.
.	.	.	.	.	.	.	.	4f)	.	.
=6	=6	=6	=6	=6	=6	=6	=6	=6	=6	=6
*	*	*	*	*	*	*^	*	*	*	*
2C	.	2cc	2c	2C	2cc	2e-	2g/	2C	2e-	2g	2cc
*	*	*	*	*	*	*v	*v	*	*	*	*
2C	.	2ee-	2c	2C	2ee-	2g	2C	2e-	2g	2ee-
=7	=7	=7	=7	=7	=7	=7	=7	=7	=7	=7
2E-	.	2b-	2G	2E-	2b-	1e-	2E-	2e-	2g	2b-
2AA-	.	2cc	2A-	2AA-	2cc	.	2AA-	2e-	2a-	2cc
=8	=8	=8	=8	=8	=8	=8	=8	=8	=8	=8
2BB-	.	2b-	2F	2BB-	2b-	2d	2BB-	2d	2f	2b-
2D	5	2a-	2B-	2D	2a-	2f	2D	2B-	2f	2a-
=9	=9	=9	=9	=9	=9	=9	=9	=9	=9	=9
2E-	.	2g	2B-	2E-	2g	2e-	2E-	2B-	2e-	2g
2AA-	.	2a-	2ryy	2AA-	2c	2e-	2AA-	2c	2e-	2a-
=10	=10	=10	=10	=10	=10	=10	=10	=10	=10	=10
1BB-	6 4	2g	2B-	1BB-	2g	2e-	2BB-	2B-	2e-	2g
.	7 5 3	2f	2A-	.	2f	2d	2BB-	2A-	2d	2f
=	=	=	=	=	=	=	=	=	=	=
2E-	.	2e-	2G	2E-	2e-	2B-	2E-	2G	2e-	2e-
=11:|!	=11:|!	=11:|!	=11:|!	=11:|!	=11:|!	=11:|!	=11:|!	=11:|!	=11:|!	=11:|!
[2E-	.	2g	2B-	[2E-	2g	2e-	[2E-	2B-	2e-	2g
=12	=12	=12	=12	=12	=12	=12	=12	=12	=12	=12
2E-]	nr4	2an	2c	2E-]	2an	1f	2E-]	2c	2f	2an
2D	nr6	2bn	2F	2D	2bn	.	2D	2d	2f	2bn
=13	=13	=13	=13	=13	=13	=13	=13	=13	=13	=13
2C	.	2cc	[1G	2C	2cc	1e-	2C	2e-	2g	2cc
2C	.	2ee-	.	2C	2ee-	.	2C	2e-	[2g	2ee-
=14	=14	=14	=14	=14	=14	=14	=14	=14	=14	=14
2D	6 4	2b-	2G]	2D	2b-	1d	2D	2d	2g]	2b-
2D	nr5 #	2an	2F#X	2D	2an	.	2D	2c	2f#X	2an
=15	=15	=15	=15	=15	=15	=15	=15	=15	=15	=15
*	*	*	*	*	*	*^	*	*	*	*
2GG	.	2g	2G	2GG	2g	2B-	2d/	2GG	2B-	2g	2g
*	*	*	*	*	*	*v	*v	*	*	*	*
2G	.	2b-	2ryy	2G	2d	2g	2G	2d	2g	2b-
=16	=16	=16	=16	=16	=16	=16	=16	=16	=16	=16
2En	5	2b-	1ryy	2En	2c	2g	2En	2c	2g	2b-
2C	n	2cc	.	2C	2en	2g	2C	2e	2g	2cc
=17	=17	=17	=17	=17	=17	=17	=17	=17	=17	=17
2F	.	2a-	1ryy	2F	2c	2a-	2F	2c	2f	2a-
2BB-	7	2a-	.	2BB-	2d	2f	2BB-	2d	2f	2a-
=18	=18	=18	=18	=18	=18	=18	=18	=18	=18	=18
2E-	.	2g	2B-	2E-	2g	2g	2E-	2B-	2g	2g
2BBn	6	2dd	2ryy	2BBn	2d	2g	2BBn	2d	2g	2dd
=19	=19	=19	=19	=19	=19	=19	=19	=19	=19	=19
2C	.	2ee-	1G	2C	2ee-	1g	2C	2G	2g	2ee-
2E-	6	2cc	.	2E-	2cc	.	2E-	2G	2g	2cc
=20	=20	=20	=20	=20	=20	=20	=20	=20	=20	=20
2F	6 5	2cc	2A-	2F	2cc	1d	2F	2A-	2d	2cc
2G	n	2bn	2G	2G	2bn	.	2G	2G	2d	2bn
=21	=21	=21	=21	=21	=21	=21	=21	=21	=21	=21
2C	.	2cc	2G	2C	2cc	2e-	2C	2G	2e-	2cc
*	*	*	*v	*v	*	*	*	*	*	*
*	*	*	*	*v	*v	*	*	*	*
==	==	==	==	==	==	==	==	==
*-	*-	*-	*-	*-	*-	*-	*-	*-
!!!system-decoration: {(s1,s2,s3,s4)}{(s5,s6)}{(s7,s8)}
!!!RDF**kern: > = above
!!!RDF**kern: < = below
!!!AGN: chorale
!!!EED: Derek Remeš
!!!EED2: Victor Phan
!!!END: 2023/11/28
!!!ENC: Wolfgang Drescher
!!!EEV: 2023/11/29
!!!title: @{ONM}. @{OTL}